src/lib/packages/icons/src/assets/filled/log-out.svg

<svg xmlns="http://www.w3.org/2000/svg" width="24" height="24" fill="none"><path fill="currentColor" d="M8 12.75h7V18c0 2-1 3-3 3H6c-2 0-3-1-3-3V6c0-2 1-3 3-3h6c2 0 3 1 3 3v5.25H8a.75.75 0 0 0 0 1.5Zm13.692-1.037a.749.749 0 0 0-.162-.244l-3-3a.75.75 0 1 0-1.061 1.061l1.72 1.72H15v1.5h4.189l-1.72 1.72a.75.75 0 0 0 1.06 1.061l3-3a.747.747 0 0 0 .163-.818Z"/></svg>

<svg width="24" height="24" viewBox="0 0 24 24" fill="none" xmlns="http://www.w3.org/2000/svg">
<path d="M8 12.75H15V17V18C15 20 14 21 12 21H6C4 21 3 20 3 18V6C3 4 4 3 6 3H12C14 3 15 4 15 6V7V11.25H8C7.586 11.25 7.25 11.586 7.25 12C7.25 12.414 7.586 12.75 8 12.75ZM21.692 11.713C21.654 11.621 21.599 11.538 21.53 11.469L18.53 8.46899C18.237 8.17599 17.762 8.17599 17.469 8.46899C17.176 8.76199 17.176 9.237 17.469 9.53L19.189 11.25H15V12.75H19.189L17.469 14.47C17.176 14.763 17.176 15.238 17.469 15.531C17.615 15.677 17.807 15.751 17.999 15.751C18.191 15.751 18.383 15.678 18.529 15.531L21.529 12.531C21.598 12.462 21.653 12.379 21.691 12.287C21.768 12.103 21.768 11.897 21.692 11.713Z" fill="currentColor"/>
</svg>
